share/icons/Flat-Remix-Blue-Dark/mimetypes/scalable/application-x-mono-develop.svg

<svg width="36pt" height="36pt" version="1.1" viewBox="0 0 36 36" xmlns="http://www.w3.org/2000/svg"><defs><filter id="a" x="-.192" y="-.192" width="1.384" height="1.384" color-interpolation-filters="sRGB"><feGaussianBlur stdDeviation="0.67843748"/></filter></defs><path d="m7.3477 3.9022c-0.67188 0-1.3047 0.63281-1.3047 1.3047v27.391c0 0.63281 0.67188 1.3047 1.3047 1.3047h20.871c0.63281 0 1.3047-0.67188 1.3047-1.3047v-20.215l-8.4805-8.4805z" opacity=".3"/><path d="m7.3477 3.1523c-0.67188 0-1.3047 0.63281-1.3047 1.3047v27.391c0 0.63281 0.67188 1.3047 1.3047 1.3047h20.871c0.63281 0 1.3047-0.67188 1.3047-1.3047v-20.215l-8.4805-8.4805z" fill="#1a3e7b"/><path d="m20.668 3.5272 8.4805 8.4805h-7.1758c-0.63281 0-1.3047-0.67187-1.3047-1.3047z" filter="url(#a)" opacity=".2"/><path d="m21.043 3.1523 8.4805 8.4805h-7.1758c-0.63281 0-1.3047-0.67187-1.3047-1.3047z" fill="#5a729c"/><path d="m14.992 13.516c-2.2266 0-5.0312 2.1055-5.0039 5.3672 0.023438 3.1562 1.0742 4.8672 1.8789 6.8047l2.3789-0.99219c-0.54688-1.1133-1.2617-2.2148-1.5117-2.7656-0.71094-1.543-0.94922-2.2344-0.89062-3.4102 0.054688-1.1367 0.43359-1.832 1.1289-2.5039 0.69531-0.66797 1.6602-1.0078 2.8086-0.84766 1.6562 0.22656 2.5273 1.1523 2.9453 2 0.23828-0.035157 0.48047-0.0625 0.75-0.0625 0.20703 0 0.41797 0.015625 0.625 0.0625-0.44531-1.7578-2.6367-3.6523-5.1094-3.6523zm1.0117 3.0664c-1.0156-0.066406-2.4922 0.42578-2.4844 1.9766 0.007813 1.4688 0.92578 2.5664 2.0195 3.0078-0.023437-0.36719 0-0.77734 0.058594-1.1914-0.58984-0.32031-0.94922-0.89453-1.0078-1.6953-0.066406-0.88672 0.81641-1.7852 2.2188-1.332 0.22656 0.074219 0.23438-0.31641-0.019532-0.52344-0.16406-0.13281-0.44922-0.21875-0.78516-0.24219zm3.4727 1.1719c-0.17969 0-0.34766 0.003906-0.50781 0.019532 0.042969 0.15625 0.074219 0.31641 0.082031 0.44141 0.10156-0.003906 0.21484-0.003906 0.32422 0 0.29688 0.015625 0.57422 0.0625 0.82812 0.14453 0.007813-0.16797 0.003906-0.32812 0-0.48438-0.24219-0.078125-0.48438-0.12109-0.72656-0.12109zm-0.48437 1.0898c-0.16016 0.67969-0.63672 1.5195-1.6172 1.7539-0.023438 0.14062-0.042969 0.27344-0.039062 0.36328 0.011718 0.1875 0.050781 0.44922 0.16016 0.72656 1.6758-0.30469 2.3945-1.4805 2.625-2.6836-0.22266-0.089844-0.48047-0.14844-0.78906-0.16016-0.11719-0.007812-0.23828-0.011719-0.33984 0zm-2.7656 1.7734c-0.035156 0.3125-0.058593 0.625-0.042968 0.91016 0.003906 0.066406 0.007812 0.13281 0.019531 0.20312 0.125 0.015625 0.24219 0.058593 0.36328 0.058593 0.10547 0 0.20703-0.015624 0.30469-0.019531-0.097656-0.27734-0.16797-0.54297-0.18359-0.76562-0.003906-0.097656-0.007812-0.21094 0-0.32422-0.16016-0.007813-0.32031-0.03125-0.46094-0.0625z" fill="#fff"/><path d="m24.184 13.523c0.80469 1.9336 1.8711 3.6328 1.8945 6.793 0.027344 3.2617-2.793 5.3711-5.0195 5.3711-2.6953 0-5.0703-2.2578-5.1953-4.1289-0.11328-1.6914 0.49219-4.1484 3.6211-4.1328 1.4922 0.011719 3.043 1.3008 3.0508 3.2188 0.011719 2.0703-2.6016 2.2734-3.2617 1.7461-0.25391-0.20703-0.24609-0.61328-0.023438-0.53906 1.4102 0.45313 2.2773-0.44141 2.2109-1.332-0.085938-1.2109-0.80859-1.9297-2.1055-1.9883-1.8672-0.089844-2.3906 1.7109-2.3438 2.4453 0.058593 0.89453 0.83984 2.7227 3.2734 3.0586 1.1484 0.15625 2.1016-0.18359 2.7969-0.85156 0.69141-0.67188 1.0859-1.3672 1.1445-2.5 0.058594-1.1719-0.19922-1.8633-0.90625-3.4062-0.25391-0.55078-0.96094-1.6562-1.5078-2.7695l2.3711-0.98437" fill="#fff"/></svg>

<svg xmlns="http://www.w3.org/2000/svg" xmlns:xlink="http://www.w3.org/1999/xlink" width="36pt" height="36pt" version="1.1" viewBox="0 0 36 36"> <defs> <clipPath id="clip1"> <path d="M 20 2 L 31 2 L 31 13 L 20 13 Z M 20 2"/> </clipPath> <clipPath id="clip2"> <path d="M 20.515625 2.625 L 30.328125 12.4375 L 22.023438 12.4375 C 21.292969 12.4375 20.515625 11.660156 20.515625 10.929688 Z M 20.515625 2.625"/> </clipPath> <image id="image6" width="36" height="36" xlink:href="data:image/png;base64,iVBORw0KGgoAAAANSUhEUgAAACQAAAAkCAYAAADhAJiYAAAABmJLR0QA/wD/AP+gvaeTAAAAmklEQVRYhe3T0QqCQBBG4aOtYEoUvf9Lildltl00C4tkbBeTIP+BAUEYP1YW1Pcqh53B9kbgaVPcwQF0tAmGSrMZ6AKcDQXw+AUVHEAtcAUaewYYgYmC3+cBCkAPnDJQMcoDVNnebgEqQnmAclTz4d0I3P4JStc9AjXvk4qLWQV53LLeEOl05gw4A3dgcPiuUkoppZRSSqk99gLWvSJpuDnlsAAAAABJRU5ErkJggg=="/> </defs> <g> <path style="fill:rgb(10.588%,24.705%,48.627%)" d="M 7.347656 3.152344 C 6.675781 3.152344 6.042969 3.785156 6.042969 4.457031 L 6.042969 31.847656 C 6.042969 32.480469 6.714844 33.152344 7.347656 33.152344 L 28.21875 33.152344 C 28.851562 33.152344 29.523438 32.480469 29.523438 31.847656 L 29.523438 11.632812 L 21.042969 3.152344 Z M 7.347656 3.152344"/> <g clip-path="url(#clip1)"> <g clip-path="url(#clip2)"> <use xlink:href="#image6"/> </g> </g> <path style="fill:rgb(35.686%,45.098%,61.568%)" d="M 21.042969 3.152344 L 29.523438 11.632812 L 22.347656 11.632812 C 21.714844 11.632812 21.042969 10.960938 21.042969 10.328125 Z M 21.042969 3.152344"/> <path style="fill:rgb(100.000%,100.000%,100.000%)" d="M 14.992188 13.515625 C 12.765625 13.515625 9.960938 15.621094 9.988281 18.882812 C 10.011719 22.039062 11.0625 23.75 11.867188 25.6875 L 14.246094 24.695312 C 13.699219 23.582031 12.984375 22.480469 12.734375 21.929688 C 12.023438 20.386719 11.785156 19.695312 11.84375 18.519531 C 11.898438 17.382812 12.277344 16.6875 12.972656 16.015625 C 13.667969 15.347656 14.632812 15.007812 15.78125 15.167969 C 17.4375 15.394531 18.308594 16.320312 18.726562 17.167969 C 18.964844 17.132812 19.207031 17.105469 19.476562 17.105469 C 19.683594 17.105469 19.894531 17.121094 20.101562 17.167969 C 19.65625 15.410156 17.464844 13.515625 14.992188 13.515625 Z M 16.003906 16.582031 C 14.988281 16.515625 13.511719 17.007812 13.519531 18.558594 C 13.527344 20.027344 14.445312 21.125 15.539062 21.566406 C 15.515625 21.199219 15.539062 20.789062 15.597656 20.375 C 15.007812 20.054688 14.648438 19.480469 14.589844 18.679688 C 14.523438 17.792969 15.40625 16.894531 16.808594 17.347656 C 17.035156 17.421875 17.042969 17.03125 16.789062 16.824219 C 16.625 16.691406 16.339844 16.605469 16.003906 16.582031 Z M 19.476562 17.753906 C 19.296875 17.753906 19.128906 17.757812 18.96875 17.773438 C 19.011719 17.929688 19.042969 18.089844 19.050781 18.214844 C 19.152344 18.210938 19.265625 18.210938 19.375 18.214844 C 19.671875 18.230469 19.949219 18.277344 20.203125 18.359375 C 20.210938 18.191406 20.207031 18.03125 20.203125 17.875 C 19.960938 17.796875 19.71875 17.753906 19.476562 17.753906 Z M 18.992188 18.84375 C 18.832031 19.523438 18.355469 20.363281 17.375 20.597656 C 17.351562 20.738281 17.332031 20.871094 17.335938 20.960938 C 17.347656 21.148438 17.386719 21.410156 17.496094 21.6875 C 19.171875 21.382812 19.890625 20.207031 20.121094 19.003906 C 19.898438 18.914062 19.640625 18.855469 19.332031 18.84375 C 19.214844 18.835938 19.09375 18.832031 18.992188 18.84375 Z M 16.226562 20.617188 C 16.191406 20.929688 16.167969 21.242188 16.183594 21.527344 C 16.1875 21.59375 16.191406 21.660156 16.203125 21.730469 C 16.328125 21.746094 16.445312 21.789062 16.566406 21.789062 C 16.671875 21.789062 16.773438 21.773438 16.871094 21.769531 C 16.773438 21.492188 16.703125 21.226562 16.6875 21.003906 C 16.683594 20.90625 16.679688 20.792969 16.6875 20.679688 C 16.527344 20.671875 16.367188 20.648438 16.226562 20.617188 Z M 16.226562 20.617188"/> <path style="fill:rgb(100.000%,100.000%,100.000%)" d="M 24.183594 13.523438 C 24.988281 15.457031 26.054688 17.15625 26.078125 20.316406 C 26.105469 23.578125 23.285156 25.6875 21.058594 25.6875 C 18.363281 25.6875 15.988281 23.429688 15.863281 21.558594 C 15.75 19.867188 16.355469 17.410156 19.484375 17.425781 C 20.976562 17.4375 22.527344 18.726562 22.535156 20.644531 C 22.546875 22.714844 19.933594 22.917969 19.273438 22.390625 C 19.019531 22.183594 19.027344 21.777344 19.25 21.851562 C 20.660156 22.304688 21.527344 21.410156 21.460938 20.519531 C 21.375 19.308594 20.652344 18.589844 19.355469 18.53125 C 17.488281 18.441406 16.964844 20.242188 17.011719 20.976562 C 17.070312 21.871094 17.851562 23.699219 20.285156 24.035156 C 21.433594 24.191406 22.386719 23.851562 23.082031 23.183594 C 23.773438 22.511719 24.167969 21.816406 24.226562 20.683594 C 24.285156 19.511719 24.027344 18.820312 23.320312 17.277344 C 23.066406 16.726562 22.359375 15.621094 21.8125 14.507812 L 24.183594 13.523438 M 24.183594 13.523438"/> </g> </svg>
